X:1
T:Title
%%score ( 1 2 3 ) ( 4 5 )
L:1/8
Q:1/4=106
M:6/8
K:Ab
V:1 treble nm="Grand Piano, Soprano"
V:2 treble 
V:3 treble 
V:4 bass nm="Choir Pad, Sweet Easter Bells A-Chime"
V:5 bass 
V:1
 [CE] [CE]2 [Ec] [Ec]2 | [Fd] [Ec]2- [Ec]2- [Ec]/ z/ | C C2 [CA] [CA]2 | %3
w: By~H.~W.~Porter * * *|||
 [DB] [CA]2- [CA]2- [CA]/ z/ | [Cc] [=Dc]2 [DB] [DA]2 | [=DF] [Ec]2 [EB] [EG]2 | %6
w: |||
 E [F=d]2 [Ec] [=DA]2 | .[=DF]2 e eee | E [CE]2- [CE] C2- | C [Ec]2- [Ec]2- [Ec]/ z/ | %10
w: ||||
 [CA] [DG]2- [DG] [DF]2- | [DF] [Fd]2- [Fd]2- [Fd]/ z/ | [Fd] [Fd]2- [Fd]3 | %13
w: |||
 [df] [ce]2- [ce]2- [ce]/ z/ | [CA] [Ec]2 [DB] [CA]2 | [B,G] [CA]2- [CA]3- | %16
w: |||
 [CA] [Ec]2- [Ec] [Ec]2 | [Ec][Ec][=D_c] [E=c] [Fd]2 | .[Ec]3 z [ee'][ee'] | %19
w: |||
 [ee'] [ee']2- [ee']3- | [ee'] [DB]2- [DB] [DB]2 | [DB][DB][Ec] [Fd] [Ec]2 | z6 | %23
w: ||||
 z [ee']2- [ee']3- | [ee']3 z3 | z6 | [EA] [DG]2- [DG] [DF]2- | [DF] [Fd]2- [Fd]2- [Fd]/ z/ | %28
w: |||||
 z3 z c'2- | c'3 z c'2- | c'3 z3 | z6 | z6 |] %33
w: |||||
V:2
 x6 | x6 | x6 | x6 | x6 | x6 | x6 | z E2- E2- E/ z/ | x6 | x6 | x6 | x6 | x6 | x6 | x6 | x6 | x6 | %17
 x6 | z [DB]2- [DB]3- | [DB]6- | [DB]3 z3 | x6 | .[DB]3 z [ee'][ee'] | .[ee']3 z3 | %24
 [CE] [CE]2- [CE] C2- | C [Ec]2- [Ec]2- [Ec]/ z/ | x6 | x6 | z A2- A3 | z [Ed]2- [Ed]2- [Ed]/ z/ | %30
 z A2- A3- | A6- | A3 z3 |] %33
V:3
 x6 | x6 | x6 | x6 | x6 | x6 | x6 | x6 | x6 | x6 | x6 | x6 | x6 | x6 | x6 | x6 | x6 | x6 | x6 | %19
 x6 | x6 | x6 | z [Ec]2- [Ec]3- | [Ec]6 | x6 | x6 | x6 | x6 | [Af] e2- e e2 | .[Ec]3 .e3 | %30
 [DG] C2 D C2 | D C2- C3- | C3 z3 |] %33
V:4
 z A,,2- A,, [E,A,C]2- | [E,A,C] A,,2- A,, [E,A,C]2- | [E,A,C] F,,2- F,, [F,A,]2- | %3
 [F,A,] F,,2- F,, [C,F,A,]2- | [C,F,A,] B,,2- B,, [F,A,B,]2- | [F,A,B,] B,,2- B,, [E,G,B,]2- | %6
 [E,G,B,] B,,2- B,, [F,A,B,]2- | [F,A,B,] [E,G,]2- [E,G,] E,,2- | E,, A,,2- A,, E,2- | %9
 E, A,,2- A,, [E,A,]2- | [E,A,] [D,,D,]2- [D,,D,] [D,A,]2- | [D,A,] [D,,D,]2- [D,,D,] [D,A,]2- | %12
 [D,A,] [D,,D,]2- [D,,D,] [F,A,D]2- | [F,A,D] [E,,E,]2- [E,,E,] [E,A,C]2- | %14
 [E,A,C] E,,2- E,, E,2- | E,3 z [E,A,]2- | [E,A,] [A,,A,]2- [A,,A,] [A,,A,]2 | %17
 [A,,A,] [A,,A,]2- [A,,A,] [A,,A,]2- | [A,,A,] [E,G,]2 [E,G,] [E,G,]2 | [E,G,] [E,G,]2- [E,G,]3- | %20
 [E,G,] [E,G,]2- [E,G,] [E,G,]2 | [E,G,] [E,G,]2- [E,G,] [E,G,]2- | %22
 [E,G,] [A,,A,]2- [A,,A,][A,C][A,C] | [A,C] [A,C]2- [A,C]2- [A,C]/ z/ | %24
 [A,,A,] [A,,A,]2- [A,,A,] [A,,E,]2- | [A,,E,] [A,,A,]2- [A,,A,]2- [A,,A,]/ z/ | %26
 [C,A,] [D,A,]2- [D,A,] [D,A,]2- | [D,A,] [D,A,]2- [D,A,]2- [D,A,]/ z/ | [D,D] [E,C]2- [E,C]3 | %29
 [E,=A,] [E,B,]2- [E,B,]2- [E,B,]/ z/ | [E,B,] A,2 F, E,2 | F, E,2- E,3- | E,3 z3 |] %33
V:5
 x6 | x6 | x6 | x6 | x6 | x6 | x6 | x6 | x6 | x6 | x6 | x6 | x6 | x6 | x6 | z A,,2- A,,3- | %16
 A,,3 z3 | x6 | x6 | x6 | x6 | x6 | x6 | x6 | x6 | x6 | x6 | x6 | x6 | x6 | z A,,2- A,,3- | A,,6- | %32
 A,,3 z3 |] %33

